X:1
T:GRIGALOO
M:2/4
L:1/8
K:C
 c| F/2 F3/2 DC| F/2 F3/2 DC| _F/2 G3/2 A/2 B3/2| c3 c| d/2 c3/2 dd|\
 c/2 c3/2 AA| G/2 F3/2 GA| G3| C| F/2 F3/2 DC| F/2 F3/2 DC| F/2 G3/2 A/2 B3/2|\
 c2 FF| d/2 d3/2 dd| c/2 c3/2 cA| GC D3.99999962500005/5.99999925000009 D3.99999962500005/5.99999925000009 E3.99999962500005/5.99999925000009|\
 F3 C/2C/2| F3 C/2C/2| F2 C/2C/2 C| FA G3.99999962500005/5.99999925000009 G3.99999962500005/5.99999925000009 F3.99999962500005/5.99999925000009|\
 c3 c|
M:2/8
 c3/2 B/2|
M:2/4
 A4-| Ac d/2d/2| f4-| f z z d| c3 A| G3 F| G4-| F z2||
